src/assets/icons/spritemap.svg

<svg xmlns="http://www.w3.org/2000/svg">
	<symbol fill="none" viewbox="0 0 24 24" id="sprite-add">
		<path xmlns="http://www.w3.org/2000/svg" d="M12 4V20M20 12L4 12"/>
	</symbol>
	<symbol fill="none" viewbox="0 0 24 24" id="sprite-back">
		<path xmlns="http://www.w3.org/2000/svg" d="M10 19L3 12M3 12L10 5M3 12L21 12"/>
	</symbol>
	<symbol fill="none" viewbox="0 0 24 24" id="sprite-ban">
		<path xmlns="http://www.w3.org/2000/svg" d="M18.364 18.364C21.8787 14.8492 21.8787 9.15076 18.364 5.63604C14.8492 2.12132 9.15076 2.12132 5.63604 5.63604M18.364 18.364C14.8492 21.8787 9.15076 21.8787 5.63604 18.364C2.12132 14.8492 2.12132 9.15076 5.63604 5.63604M18.364 18.364L5.63604 5.63604"/>
	</symbol>
	<symbol fill="none" viewbox="0 0 24 24" id="sprite-check">
		<path xmlns="http://www.w3.org/2000/svg" d="M5 13L9 17L19 7"/>
	</symbol>
	<symbol fill="none" viewbox="0 0 24 24" id="sprite-chevron-donw">
		<path xmlns="http://www.w3.org/2000/svg" d="M19 9L12 16L5 9"/>
	</symbol>
	<symbol fill="none" viewbox="0 0 24 24" id="sprite-clock">
		<path xmlns="http://www.w3.org/2000/svg" d="M12 8V12L15 15M21 12C21 16.9706 16.9706 21 12 21C7.02944 21 3 16.9706 3 12C3 7.02944 7.02944 3 12 3C16.9706 3 21 7.02944 21 12Z"/>
	</symbol>
	<symbol fill="none" viewbox="0 0 24 24" id="sprite-close">
		<path xmlns="http://www.w3.org/2000/svg" d="M6 18L18 6M6 6L18 18"/>
	</symbol>
	<symbol fill="none" viewbox="0 0 24 24" id="sprite-delete">
		<path xmlns="http://www.w3.org/2000/svg" d="M16 5L15.1327 17.1425C15.0579 18.1891 14.187 19 13.1378 19H4.86224C3.81296 19 2.94208 18.1891 2.86732 17.1425L2 5M7 9V15M11 9V15M12 5V2C12 1.44772 11.5523 1 11 1H7C6.44772 1 6 1.44772 6 2V5M1 5H17"/>
	</symbol>
	<symbol fill="none" viewbox="0 0 24 24" id="sprite-edit">
		<path xmlns="http://www.w3.org/2000/svg" d="M15.2322 5.23223L18.7677 8.76777M16.7322 3.73223C17.7085 2.75592 19.2914 2.75592 20.2677 3.73223C21.244 4.70854 21.244 6.29146 20.2677 7.26777L6.5 21.0355H3V17.4644L16.7322 3.73223Z"/>
	</symbol>
	<symbol fill="none" viewbox="0 0 24 24" id="sprite-menu">
		<path xmlns="http://www.w3.org/2000/svg" d="M4 6H20M4 12H20M4 18H20"/>
	</symbol>
	<symbol fill="none" viewbox="0 0 24 24" id="sprite-search">
		<path xmlns="http://www.w3.org/2000/svg" d="M21 21L15 15M17 10C17 13.866 13.866 17 10 17C6.13401 17 3 13.866 3 10C3 6.13401 6.13401 3 10 3C13.866 3 17 6.13401 17 10Z"/>
	</symbol>
	<symbol fill="none" viewbox="0 0 24 24" id="sprite-settings">
		<path xmlns="http://www.w3.org/2000/svg" d="M10.3246 4.31731C10.751 2.5609 13.249 2.5609 13.6754 4.31731C13.9508 5.45193 15.2507 5.99038 16.2478 5.38285C17.7913 4.44239 19.5576 6.2087 18.6172 7.75218C18.0096 8.74925 18.5481 10.0492 19.6827 10.3246C21.4391 10.751 21.4391 13.249 19.6827 13.6754C18.5481 13.9508 18.0096 15.2507 18.6172 16.2478C19.5576 17.7913 17.7913 19.5576 16.2478 18.6172C15.2507 18.0096 13.9508 18.5481 13.6754 19.6827C13.249 21.4391 10.751 21.4391 10.3246 19.6827C10.0492 18.5481 8.74926 18.0096 7.75219 18.6172C6.2087 19.5576 4.44239 17.7913 5.38285 16.2478C5.99038 15.2507 5.45193 13.9508 4.31731 13.6754C2.5609 13.249 2.5609 10.751 4.31731 10.3246C5.45193 10.0492 5.99037 8.74926 5.38285 7.75218C4.44239 6.2087 6.2087 4.44239 7.75219 5.38285C8.74926 5.99037 10.0492 5.45193 10.3246 4.31731Z"/><path xmlns="http://www.w3.org/2000/svg" d="M15 12C15 13.6569 13.6569 15 12 15C10.3431 15 9 13.6569 9 12C9 10.3431 10.3431 9 12 9C13.6569 9 15 10.3431 15 12Z"/>
	</symbol>
	<symbol fill="none" viewbox="0 0 24 24" id="sprite-shield-check">
		<path xmlns="http://www.w3.org/2000/svg" d="M9 12L11 14L15 10M20.6179 5.98434C20.4132 5.99472 20.2072 5.99997 20 5.99997C16.9265 5.99997 14.123 4.84453 11.9999 2.94434C9.87691 4.84446 7.07339 5.99985 4 5.99985C3.79277 5.99985 3.58678 5.9946 3.38213 5.98422C3.1327 6.94783 3 7.95842 3 9.00001C3 14.5915 6.82432 19.2898 12 20.622C17.1757 19.2898 21 14.5915 21 9.00001C21 7.95847 20.8673 6.94791 20.6179 5.98434Z"/>
	</symbol>
</svg>

<svg xmlns="http://www.w3.org/2000/svg">
	<symbol fill="none" viewbox="0 0 24 24" id="sprite-add">
		<path stroke-linecap="round" stroke-linejoin="round" d="M12 4v16m8-8H4" />
	</symbol>
	<symbol fill="none" viewbox="0 0 24 24" id="sprite-delete">
		  <path stroke-linecap="round" stroke-linejoin="round" d="M19 7l-.867 12.142A2 2 0 0116.138 21H7.862a2 2 0 01-1.995-1.858L5 7m5 4v6m4-6v6m1-10V4a1 1 0 00-1-1h-4a1 1 0 00-1 1v3M4 7h16" />
	</symbol>
	
	<symbol fill="none" viewbox="0 0 24 24" id="sprite-settings">
		<path stroke-linecap="round" stroke-linejoin="round" d="M10.325 4.317c.426-1.756 2.924-1.756 3.35 0a1.724 1.724 0 002.573 1.066c1.543-.94 3.31.826 2.37 2.37a1.724 1.724 0 001.065 2.572c1.756.426 1.756 2.924 0 3.35a1.724 1.724 0 00-1.066 2.573c.94 1.543-.826 3.31-2.37 2.37a1.724 1.724 0 00-2.572 1.065c-.426 1.756-2.924 1.756-3.35 0a1.724 1.724 0 00-2.573-1.066c-1.543.94-3.31-.826-2.37-2.37a1.724 1.724 0 00-1.065-2.572c-1.756-.426-1.756-2.924 0-3.35a1.724 1.724 0 001.066-2.573c-.94-1.543.826-3.31 2.37-2.37.996.608 2.296.07 2.572-1.065z" />
		<path stroke-linecap="round" stroke-linejoin="round" d="M15 12a3 3 0 11-6 0 3 3 0 016 0z" />
	</symbol>
	<symbol fill="none" viewbox="0 0 24 24" id="sprite-shield-check">
		<path stroke-linecap="round" stroke-linejoin="round" d="M9 12l2 2 4-4m5.618-4.016A11.955 11.955 0 0112 2.944a11.955 11.955 0 01-8.618 3.04A12.02 12.02 0 003 9c0 5.591 3.824 10.29 9 11.622 5.176-1.332 9-6.03 9-11.622 0-1.042-.133-2.052-.382-3.016z" />
	</symbol>
</svg>
